shader_type canvas_item;

void vertex() {
	bool n_out25p0 = distance(UV,  vec2(0.50000, 0.50000))< 0.5;
	// Called for every vertex the material is visible on.
}

void fragment() {
	// Called for every pixel the material is visible on.
}

//void light() {
	// Called for every pixel for every light affecting the CanvasItem.
	// Uncomment to replace the default light processing function with this one.
//}
